flaticon/hand-gestures/tap-2.svg

<svg xmlns="http://www.w3.org/2000/svg" width="32" height="32" viewBox="0 0 24 24">
    <path d="M 9.984375 4.511719 L 9.984375 8.503906 C 9.984375 9.625 10.820312 10.460938 11.980469 10.460938 C 13.097656 10.460938 13.976562 9.585938 13.976562 8.464844 L 13.976562 4.511719 C 13.976562 3.355469 13.097656 2.476562 11.980469 2.476562 C 10.863281 2.476562 9.984375 3.355469 9.984375 4.511719 Z M 13.179688 4.472656 L 13.179688 8.425781 C 13.179688 9.144531 12.660156 9.664062 11.980469 9.664062 C 11.300781 9.664062 10.78125 9.183594 10.78125 8.503906 L 10.78125 4.511719 C 10.78125 3.792969 11.300781 3.273438 11.980469 3.273438 C 12.660156 3.273438 13.179688 3.792969 13.179688 4.472656 Z M 13.179688 4.472656"/>
    <path d="M 9.183594 16.851562 L 2.234375 16.851562 C 1.558594 16.851562 0.796875 16.371094 0.796875 15.652344 L 0.796875 2.277344 C 0.796875 1.558594 1.515625 0.878906 2.234375 0.878906 L 21.765625 0.878906 C 22.484375 0.878906 23.160156 1.558594 23.160156 2.277344 L 23.160156 13.65625 C 23.160156 13.898438 23.320312 14.054688 23.5625 14.054688 C 23.800781 14.054688 23.960938 13.898438 23.960938 13.65625 L 23.960938 2.277344 C 23.960938 1.117188 22.921875 0.078125 21.765625 0.078125 L 2.234375 0.078125 C 1.078125 0.078125 0 1.117188 0 2.277344 L 0 15.652344 C 0 16.890625 1.15625 17.652344 2.234375 17.652344 L 9.183594 17.652344 C 9.425781 17.652344 9.585938 17.492188 9.585938 17.25 C 9.585938 17.011719 9.425781 16.851562 9.183594 16.851562 Z M 9.183594 16.851562"/>
    <path d="M 23.878906 15.855469 C 23.519531 15.496094 23.160156 15.09375 22.800781 14.695312 C 20.84375 12.5 18.449219 9.785156 15.175781 10.582031 C 12.417969 11.261719 10.703125 14.097656 11.339844 16.851562 C 11.699219 18.371094 12.738281 19.367188 13.777344 20.324219 C 13.898438 20.445312 14.054688 20.566406 14.175781 20.683594 L 17.410156 23.800781 C 17.492188 23.878906 17.609375 23.921875 17.691406 23.921875 C 17.769531 23.921875 17.890625 23.878906 17.96875 23.800781 C 18.128906 23.640625 18.128906 23.402344 17.96875 23.242188 L 14.773438 20.085938 C 14.65625 19.964844 14.496094 19.847656 14.375 19.726562 C 13.378906 18.808594 12.460938 17.96875 12.140625 16.652344 C 11.582031 14.335938 13.058594 11.898438 15.375 11.339844 C 18.210938 10.703125 20.367188 13.097656 22.242188 15.214844 C 22.601562 15.652344 22.960938 16.054688 23.320312 16.414062 C 23.480469 16.574219 23.71875 16.574219 23.878906 16.414062 C 24.039062 16.253906 24.039062 16.011719 23.878906 15.855469 Z M 23.878906 15.855469"/>
    <path d="M18.886719 13.097656C17.492188 11.699219 15.214844 11.699219 13.816406 13.097656 12.417969 14.496094 12.417969 16.773438 13.816406 18.167969L15.496094 19.847656C15.773438 20.085938 16.09375 20.246094 16.453125 20.246094 16.492188 20.246094 16.53125 20.246094 16.53125 20.246094 18.886719 20.085938 20.804688 18.167969 20.964844 15.8125 20.964844 15.414062 20.84375 15.054688 20.566406 14.773438zM14.375 17.652344C13.296875 16.53125 13.296875 14.773438 14.414062 13.65625 15.496094 12.578125 17.292969 12.578125 18.371094 13.65625L19.941406 15.304688C19.761719 15.390625 19.566406 15.476562 19.367188 15.574219 18.730469 15.894531 18.011719 16.214844 17.449219 16.773438 16.890625 17.371094 16.492188 18.128906 16.171875 18.808594 16.117188 18.960938 16.050781 19.113281 15.980469 19.253906zM16.757812 19.460938C16.792969 19.363281 16.828125 19.265625 16.851562 19.167969 17.171875 18.488281 17.53125 17.808594 18.011719 17.332031 18.488281 16.851562 19.089844 16.574219 19.6875 16.292969 19.835938 16.238281 19.988281 16.171875 20.136719 16.097656 19.902344 17.835938 18.496094 19.234375 16.757812 19.460938zM11.582031 11.660156C11.582031 11.421875 11.421875 11.261719 11.179688 11.261719 10.0625 11.261719 9.183594 10.382812 9.183594 9.265625L9.183594 7.667969C9.183594 7.425781 9.023438 7.269531 8.785156 7.269531 8.546875 7.269531 8.386719 7.425781 8.386719 7.667969L8.386719 9.265625C8.386719 10.820312 9.625 12.058594 11.179688 12.058594 11.421875 12.058594 11.582031 11.898438 11.582031 11.660156zM11.582031 11.660156"/>
</svg>

<svg xmlns="http://www.w3.org/2000/svg" width="32" height="32" viewBox="0 0 24 24">
    <path d="M9.984 4.512v3.992c0 1.121.836 1.957 1.996 1.957a1.975 1.975 0 0 0 1.997-1.996V4.512c0-1.157-.88-2.035-1.997-2.035s-1.996.878-1.996 2.035zm3.196-.04v3.954c0 .719-.52 1.238-1.2 1.238-.68 0-1.199-.48-1.199-1.16V4.512c0-.719.52-1.239 1.2-1.239.68 0 1.199.52 1.199 1.2zm0 0"/>
    <path d="M9.184 16.852h-6.95c-.675 0-1.437-.48-1.437-1.2V2.277C.797 1.56 1.516.88 2.234.88h19.532c.718 0 1.394.68 1.394 1.398v11.38c0 .241.16.398.402.398.239 0 .399-.157.399-.399V2.277c0-1.16-1.04-2.199-2.195-2.199H2.234C1.078.078 0 1.118 0 2.278v13.374c0 1.239 1.156 2 2.234 2h6.95c.242 0 .402-.16.402-.402 0-.238-.16-.398-.402-.398zm0 0"/>
    <path d="M23.879 15.855c-.36-.359-.719-.761-1.078-1.16-1.957-2.195-4.352-4.91-7.625-4.113-2.758.68-4.473 3.516-3.836 6.27.36 1.52 1.398 2.515 2.437 3.472.121.121.278.242.399.36L17.41 23.8c.082.078.2.12.281.12.079 0 .2-.042.278-.12a.385.385 0 0 0 0-.559l-3.196-3.156c-.117-.121-.277-.238-.398-.36-.996-.917-1.914-1.757-2.234-3.074-.559-2.316.918-4.754 3.234-5.312 2.836-.637 4.992 1.758 6.867 3.875.36.437.719.84 1.078 1.2.16.16.399.16.559 0a.385.385 0 0 0 0-.56zm0 0"/>
    <path d="M18.887 13.098a3.588 3.588 0 0 0-5.07 0 3.588 3.588 0 0 0 0 5.07l1.68 1.68c.276.238.597.398.956.398h.078c2.356-.16 4.274-2.078 4.434-4.433 0-.399-.121-.758-.399-1.04zm-4.512 4.554a2.837 2.837 0 0 1 .04-3.996c1.081-1.078 2.878-1.078 3.956 0l1.57 1.649c-.18.086-.375.172-.574.27-.637.32-1.355.64-1.918 1.198-.558.598-.957 1.356-1.277 2.036a4.129 4.129 0 0 1-.192.445zm2.383 1.809c.035-.098.07-.195.094-.293.32-.68.68-1.36 1.16-1.836.476-.48 1.078-.758 1.675-1.039.149-.055.301-.121.45-.195a3.953 3.953 0 0 1-3.38 3.363zm0 0M11.582 11.66c0-.238-.16-.398-.402-.398a1.977 1.977 0 0 1-1.996-1.996V7.668c0-.242-.16-.398-.399-.398-.238 0-.398.156-.398.398v1.598a2.778 2.778 0 0 0 2.793 2.793c.242 0 .402-.16.402-.399zm0 0"/>
</svg>
